!!!COM: Bach, Johann Sebastian
!!!CDT: 1685/02/21/-1750/07/28/
!!!OTL@@DE: Jesus Christus, unser Heiland
!!!SCT: BWV 363
!!!PC#: 30
!!!AGN: chorale
**harm	**kern	**kern	**kern	**kern
*	*ICvox	*ICvox	*ICvox	*ICvox
*	*Ibass	*Itenor	*Ialto	*Isoprn
*	*I"Bass	*I"Tenor	*I"Alto	*I"Soprano
*	*	*oclefC4	*oclefC3	*oclefC1
*	*clefF4	*clefGv2	*clefG2	*clefG2
*k[f#]	*k[f#]	*k[f#]	*k[f#]	*k[f#]
*e:	*e:	*e:	*e:	*e:
*M4/4	*M4/4	*M4/4	*M4/4	*M4/4
*met(c)	*met(c)	*met(c)	*met(c)	*met(c)
*MM100	*MM100	*MM100	*MM100	*MM100
=1-	=1-	=1-	=1-	=1-
i	4E	4G	4B	4e
v	4D	4F#	4B	4b
VI7	4C	4G	4e	4b
iv6	4C	4E	4e	4a
=2	=2	=2	=2	=2
V	8BBL	8F#L	8d#L	8bL
V2	8AJ	8F#J	8d#J	8bJ
i6	8GL	8BL	8eL	8eL
viio6	8F#J	8AJ	8d#J	8f#J
i	4E	4B	4e	4g
VI	4C	4e	4e	4g
=3	=3	=3	=3	=3
viio7/V	4AA#	4c#	4e	4g
V7	4BB	4A	4d#	4f#
i;	2EE;	2G;	2B;	2e;
=4	=4	=4	=4	=4
i	4E	4B	4e	4g
VI	4CnX	4cnX	4e	4g
G:I6	4BB	4G	4dnX	4g
IV	4C	4G	4c	4e
=5	=5	=5	=5	=5
I6	4BB	4G	4d	4g
ii	8AAL	8cL	8eL	8aL
viio6	8AAJ	8cJ	8f#J	8aJ
I	4GG	4d	4g	4b
ii7	8AAL	8cL	8gL	8aL
viio6	8AAJ	8cJ	8f#J	8aJ
=6	=6	=6	=6	=6
e:V(64)	4BB	4B	4e	4g
V7	4BB	4A	4d#	4f#
i;	2E;	2G;	2B;	2e;
=7	=7	=7	=7	=7
i	4E	4B	4e	4g
G:I6	4BB	4dnX	4g	4g
IV	4C	4c	4e	4g
IV6	4E	4G	4c	4e
=8	=8	=8	=8	=8
IV	4C	4G	4e	4g
ii	8AAL	8cL	8eL	8aL
viio6	8AAJ	8cJ	8f#J	8aJ
I	4GG	4d	4g	4b
V7	4D	4c	4f#	4a
=9	=9	=9	=9	=9
I;	2GG;	2B;	2d;	2g;
.	4r	4ry	4ryy	4r
I6	8BBL	8dL	8gL	8ddL
V65/IV	8BBJ	8dJ	8fJ	8ddJ
=10	=10	=10	=10	=10
IV	4C	4c	4e	4ee
V7	4D	4A	4f#	4cc
vi[	8EL	8GL	8gL	8bL
viio/vi]	8EJ	8cJ	8d#J	8aJ
vi	8EL	8BL	8eL	8gL
V6	8F#J	8AJ	8dJ	8aJ
=11	=11	=11	=11	=11
I	8GL	8GL	8dL	8bL
I6	8BBJ	8dJ	8gJ	8bJ
V65/V	8C#L	8eL	8gL	8aL
e:V65	8D#J	8BJ	8f#J	8aJ
i	8EL	8BL	8eL	8gL
i6	8GGJ	8BJ	8eJ	8gJ
ii%65	8AAL	8cL	8eL	8f#L
V7	8BBJ	8AL	8d#J	8f#J
=12	=12	=12	=12	=12
I;	2.EE;	2.G#;	2.B;	2.e;
.	4r	4ry	4ry	4r
==	==	==	==	==
*-	*-	*-	*-	*-
!!!YOR1: 371 vierstimmige Choralges&auml;nge von Johann Sebastian Bach, 
!!!YOR2: 4th ed. by Alfred D&ouml;rffel (Leipzig: Breitkopf und H&auml;rtel, 
!!!YOR2: c.1875). 178 pp. Plate "V.A.10".  reprint: J.S. Bach, 371 Four-Part 
!!!YOR4: Chorales (New York: Associated Music Publishers, Inc., c.1940).
!!!SMS: B&H, 4th ed, Alfred D&ouml;rffel, c.1875, plate V.A.10
!!!EED:  Craig Stuart Sapp
!!!EEV:  2009/05/22
